X:78
T:Waltz. RHu.078
S:R.Hughes MS,1823,Whitchurch,Shrops.
A:Whitchurch , Shropshire
Z:Neil Brookes 2006
M:3/8
L:1/8
Q:3/8=60
R:Waltz
K:G
G/B/|dd B/d/|g>g f/g/|e/c'/b/a/g/f/|gf G/B/|\
dd B/d/|gg f/g/|e/c'/b/a/g/f/|"dcr in MS"g2::!
b/a/|gg c'/b/|aa a/b/|c'/b/a/g/f/e/|ddb/a/|\
gg c'/b/|aa a/b/|e/c'/b/a/g/f/|g2::!
d|d2B|cBA|e2d|dcB|d2c|BAG|AGF|G2::!
d|gb/a/g/f/|eeg|ac'/b/a/g/|gfd|\
g/f/e/d/c/B/|e/d/c/B/A/G/|e/c'/b/a/g/f/|g2:||

